src/assets/icons/EnergyIcon.svg

<svg viewBox="0 0 16 16" xmlns="http://www.w3.org/2000/svg">
<path d="M6.02115 2.33803H9.49924C9.61289 2.33803 9.69695 2.44343 9.67132 2.55387L8.56355 7.35274C8.53815 7.46318 8.62222 7.56858 8.73587 7.56858H11.7305C11.869 7.56858 11.9537 7.72034 11.8807 7.83779L7.72575 14.5191C7.61901 14.6907 7.35374 14.5777 7.40452 14.382L8.41235 10.4924C8.44132 10.3808 8.35688 10.272 8.24126 10.272H5.17677C5.0715 10.272 4.9894 10.1806 5.00111 10.0763L5.84549 2.49487C5.85535 2.40546 5.93103 2.33794 6.02114 2.33794L6.02115 2.33803Z" fill="currentColor"/>
</svg>

<svg xmlns="http://www.w3.org/2000/svg" viewBox="0 0 16 16"><path fill="currentColor" d="M6.021 2.338H9.5c.114 0 .198.105.172.216L8.564 7.353a.176.176 0 0 0 .172.216h2.994c.139 0 .224.151.15.269l-4.154 6.681c-.107.172-.372.059-.321-.137l1.007-3.89a.176.176 0 0 0-.17-.22H5.176A.176.176 0 0 1 5 10.076l.844-7.581a.176.176 0 0 1 .176-.157Z"/></svg>
